dist/assets/images/searchResults/clock.svg

<svg width="16" height="16" viewBox="0 0 16 16" fill="none" xmlns="http://www.w3.org/2000/svg">
<g id="clock">
<path id="Vector" d="M14.5 8C14.5 11.5899 11.5899 14.5 8 14.5C4.41015 14.5 1.5 11.5899 1.5 8C1.5 4.41015 4.41015 1.5 8 1.5C11.5899 1.5 14.5 4.41015 14.5 8Z" stroke="#2E1AAD" stroke-linecap="round" stroke-linejoin="round"/>
<path id="Vector_2" d="M5.9886 10.5275L5.59254 11H10.8333V10.4167H6.77456C7.0386 9.845 7.04474 9.0925 6.80526 7.79167H9.29825V7.20833H6.6886C6.65482 7.05083 6.62105 6.8875 6.58114 6.71542C6.5136 6.42375 6.54123 6.1 6.65789 5.8025C6.94649 5.07333 7.68947 4.58333 8.50921 4.58333H8.55526C8.87456 4.58333 9.18158 4.65333 9.46404 4.79333L9.74649 4.27708C9.38114 4.09625 8.96974 4 8.55526 4H8.50921C7.43465 4 6.45833 4.64167 6.08377 5.59833C5.92412 6.00667 5.88728 6.43542 5.97939 6.83792C6.01009 6.96625 6.03465 7.08875 6.06228 7.20833H5V7.79167H6.18202C6.50439 9.50375 6.36623 10.0754 5.9886 10.5275Z" fill="#2E1AAD"/>
</g>
</svg>

<svg width="16" height="16" fill="none" xmlns="http://www.w3.org/2000/svg"><path d="M14.5 8a6.5 6.5 0 11-13 0 6.5 6.5 0 0113 0z" stroke="#2E1AAD" stroke-linecap="round" stroke-linejoin="round"/><path d="M5.989 10.527L5.593 11h5.24v-.583H6.775c.264-.572.27-1.325.03-2.625h2.493v-.584h-2.61c-.033-.157-.067-.32-.107-.493a1.562 1.562 0 01.077-.912c.288-.73 1.031-1.22 1.851-1.22h.046c.32 0 .627.07.909.21l.282-.516A2.698 2.698 0 008.556 4h-.047c-1.074 0-2.05.642-2.425 1.598-.16.409-.197.837-.105 1.24.031.128.056.25.083.37H5v.584h1.182c.322 1.712.184 2.283-.193 2.736z" fill="#2E1AAD"/></svg>
